packages/asc-assets/svg/Email.svg

<svg viewBox="0 0 32 32"><path d="M0 4v24h32V4H0zm16.12 12.33L6 8h20.06l-9.94 8.33zM11.33 15L4 21.78V8.94L11.33 15zm1.56 1.28l3.24 2.67 3.08-2.58L27.45 24H4.55l8.34-7.72zm7.87-1.2L28 9v12.8l-7.24-6.72z"></path></svg>

<?xml version="1.0" encoding="UTF-8"?>
<svg viewBox="0 0 32 32" version="1.1" xmlns="http://www.w3.org/2000/svg" xmlns:xlink="http://www.w3.org/1999/xlink">
    <path d="M0,4 L0,28 L32,28 L32,4 L0,4 Z M16.12,16.33 L6,8 L26.06,8 L16.12,16.33 Z M11.33,15 L4,21.78 L4,8.94 L11.33,15 Z M12.89,16.28 L16.13,18.95 L19.21,16.37 L27.45,24 L4.55,24 L12.89,16.28 Z M20.76,15.08 L28,9 L28,21.8 L20.76,15.08 Z" id="mail" fill="#000000"></path>
</svg>
